packages/foundations/assets/icons/functional/images/business & payment/shopping_basket_32.svg

<svg width="32" height="32" viewBox="0 0 32 32" fill="none" xmlns="http://www.w3.org/2000/svg">
<g clip-path="url(#clip0_184_109)">
<path fill-rule="evenodd" clip-rule="evenodd" d="M16.015 2.98547C20.433 2.98547 23.993 6.57647 23.993 11.0255H27.806C28.099 11.0242 28.3887 11.0875 28.6544 11.2109C28.9202 11.3343 29.1554 11.5148 29.3435 11.7394C29.5316 11.9641 29.6679 12.2274 29.7426 12.5107C29.8174 12.794 29.8288 13.0903 29.776 13.3785L27.298 26.5675C27.044 27.9335 25.899 29.0145 24.533 29.0145H7.68903C6.98821 29.0156 6.30905 28.7716 5.76919 28.3247C5.22934 27.8778 4.86279 27.2562 4.73303 26.5675L2.22303 13.3775C2.17116 13.0895 2.18321 12.7936 2.25833 12.5108C2.33345 12.228 2.4698 11.9651 2.65774 11.7409C2.84568 11.5166 3.08062 11.3363 3.34592 11.2129C3.61122 11.0894 3.90042 11.0258 4.19303 11.0265H8.03803C8.03803 6.60847 11.598 2.98547 16.015 2.98547ZM27.806 12.9965H4.19303L6.70303 26.1865C6.79903 26.6625 7.21203 27.0125 7.68903 27.0125H24.374C24.851 27.0125 25.264 26.6625 25.359 26.1855L27.806 12.9965ZM16.016 4.98747C12.71 4.98747 10.041 7.68947 10.041 11.0265H21.99C21.99 7.72047 19.32 4.98747 16.014 4.98747H16.016Z" fill="#1A1C1F"/>
</g>
<defs>
<clipPath id="clip0_184_109">
<rect width="32" height="32" fill="white"/>
</clipPath>
</defs>
</svg>

<svg xmlns="http://www.w3.org/2000/svg" width="32" height="32" fill="none"><g clip-path="url(#a)"><path fill="#1A1C1F" fill-rule="evenodd" d="M16.015 2.985c4.418 0 7.978 3.591 7.978 8.04h3.813a1.993 1.993 0 0 1 1.97 2.354l-2.478 13.189c-.254 1.365-1.399 2.447-2.765 2.447H7.689a3 3 0 0 1-2.956-2.448l-2.51-13.19a1.997 1.997 0 0 1 1.97-2.35h3.845c0-4.419 3.56-8.042 7.977-8.042m11.791 10.012H4.193l2.51 13.19c.096.476.509.825.986.825h16.685c.477 0 .89-.35.985-.826zm-11.79-8.01c-3.306 0-5.975 2.702-5.975 6.04H21.99c0-3.307-2.67-6.04-5.976-6.04z" clip-rule="evenodd"/></g><defs><clipPath id="a"><path fill="#fff" d="M0 0h32v32H0z"/></clipPath></defs></svg>
